X:1
T:Title
%%score { ( 1 3 ) | 2 }
L:1/8
M:3/4
K:Bb
V:1 treble nm="Grand Piano"
V:3 treble 
V:2 bass 
V:1
 z2 z2[Q:1/4=94] [B,D]>[CE] | [DF]3 [B,D] [CE]>[EG] | [EG]2 [DF]2 [DF]>[DB] | [EA][EA] G2 A2 | %4
 [DB]4 [B,D]>[CE] | [DF]3 [B,D] [CE]>[EG] | [EG]2 [DF]2 [Fd]>[Fd] | [Fc][FA] [=EA]2 [EG]2 | %8
 F4 A>B | c3 B d>c | [Ec]2 [DB]2 [DF]>[DF] | z2 z2 [DB]2 | c4 d>e | f3 d [Fc]>[Fd] | c2 B2 A>G | %15
 FF B2 c2 |[M:2/4] [B,DB]4 |[M:1/4] B>B |[M:3/4] [Ge]3 [EG] [GB][^Fc] | [Fd]4 [DF]>[DF] | %20
 z2 z2 [DB]2 | c4 d>e | f3 d [Fc]>[Fd] | c2 B2 A>G | Fd d2 c2 |[M:2/4] [DB]4 |] %26
V:2
 z2 z2 [B,,F,]>[B,,F,] | [B,,B,]3 [B,,F,] [B,,F,]>[B,,B,] | [B,,B,]4 [B,,F,]>[B,,F,] | %3
 [C,F,][C,F,] [F,E]2 [F,E]2 | [B,,F,]4 [B,,F,]>[B,,F,] | [B,,B,]3 [B,,F,] [B,,F,]>[B,,B,] | %6
 [B,,B,]4 [B,,B,]>[B,,B,] | [C,A,][C,C] [C,C]2 [C,B,]2 | [F,A,]4 [F,C]>[F,B,D] | %9
 [F,A,E]3 [F,B,D] [F,A,F]>[F,A,E] | [B,,B,]4 [B,,B,]>[B,,B,] | [E,B,][E,B,] [C,F,]2 .[B,,F,]2 | %12
 [F,A,F]4 [B,F]>[B,CF] | [B,DF]3 [B,F][K:bass] [D,B,]>[D,B,] | [E,B,]4 [E,B,F]>[E,B,E] | %15
 [F,B,D][F,B,D] [F,B,D]2 [F,A,E]2 |[M:2/4] B,,4 |[M:1/4] B,>[B,_A] | %18
[M:3/4] [E,B,]3 [E,B,] [E,B,][E,B,] | [B,,B,]4 [B,,A,]>[B,,A,] | [E,B,][E,B,] [C,F,]2 .[B,,F,]2 | %21
 [F,A,F]4 [B,F]>[B,CF] | [B,DF]3 [B,F][K:bass] [D,B,]>[D,B,] | [E,B,]4 [E,B,F]>[E,B,E] | %24
 [F,B,D][F,B,F] [F,A,F]2 [F,A,E]2 |[M:2/4] [B,,B,]4 |] %26
V:3
 x6 | x6 | x6 | x6 | x6 | x6 | x6 | x6 | x6 | x6 | x6 | [EG][EG] [EA]2 z B, | x6 | x6 | G4 z2 | %15
 x6 |[M:2/4] x4 |[M:1/4] x2 |[M:3/4] x6 | x6 | [EG][EG] [EA]2 z B, | x6 | x6 | G4 z2 | x6 | %25
[M:2/4] x4 |] %26

